src/pos-icons/shield-home-outline.svg

<svg height="24" viewBox="0 0 24 24" width="24" xmlns="http://www.w3.org/2000/svg"><path d="m21 11c0 5.55-3.84 10.74-9 12-5.16-1.26-9-6.45-9-12v-6l9-4 9 4zm-9 10c3.75-1 7-5.46 7-9.78v-4.92l-7-3.12-7 3.12v4.92c0 4.32 3.25 8.78 7 9.78m-1-7h2v3h3v-5h2l-6-5-6 5h2v5h3z"/></svg>

<?xml version="1.0" encoding="UTF-8"?><!DOCTYPE svg PUBLIC "-//W3C//DTD SVG 1.1//EN" "http://www.w3.org/Graphics/SVG/1.1/DTD/svg11.dtd"><svg xmlns="http://www.w3.org/2000/svg" xmlns:xlink="http://www.w3.org/1999/xlink" version="1.1" id="mdi-shield-home-outline" width="24" height="24" viewBox="0 0 24 24"><path d="M21,11C21,16.55 17.16,21.74 12,23C6.84,21.74 3,16.55 3,11V5L12,1L21,5V11M12,21C15.75,20 19,15.54 19,11.22V6.3L12,3.18L5,6.3V11.22C5,15.54 8.25,20 12,21M11,14H13V17H16V12H18L12,7L6,12H8V17H11V14" /></svg>
